X:637
T: "Trinklied"
N: Z1318
O: Europa, Mitteleuropa, Deutschland, Hiddensee bei Ruegen
R: Zech -, Schalks - Lied
M: 3/8
L: 1/16
K: A
E2 | A3GA2 | A3B=c2 | B4G2 | E2z2
E2 | B3AB2 | B3=cd2 | e4=c2 | A2z2
e2 | =f2e2d2 | e2z2e2 | =f2e2d2 | e2z2
e2 | =c3BA2 | =f3ed2 | B3AG2 | A2z2

